libs/icons/src/svg/lock-alt.svg

<svg width="16" height="16" viewBox="0 0 16 16" fill="none" xmlns="http://www.w3.org/2000/svg">
<g clip-path="url(#clip0_4_503)">
<path fill-rule="evenodd" clip-rule="evenodd" d="M8.07348 -8.04834e-05H8.00315C6.95245 -0.00961806 5.94081 0.398057 5.19029 1.13357C4.43894 1.86989 4.01076 2.87448 3.99998 3.92642V5.33325H5.33331V3.93686C5.34131 3.23963 5.62546 2.57396 6.12353 2.08585C6.62236 1.59699 7.29494 1.3263 7.99335 1.33325H8.06304C8.76027 1.34125 9.42594 1.6254 9.91405 2.12347C10.4029 2.6223 10.6736 3.29488 10.6666 3.99329V5.33325H12V4.00308C12.0095 2.95238 11.6018 1.94075 10.8663 1.19023C10.13 0.438881 9.12542 0.010704 8.07348 -8.04834e-05ZM3.33331 8C2.96512 8 2.66665 8.29848 2.66665 8.66667V14C2.66665 14.3682 2.96512 14.6667 3.33331 14.6667H12.6666C13.0348 14.6667 13.3333 14.3682 13.3333 14V8.66667C13.3333 8.29848 13.0348 8 12.6666 8H3.33331ZM1.33331 8.66667C1.33331 7.5621 2.22874 6.66667 3.33331 6.66667H12.6666C13.7712 6.66667 14.6666 7.5621 14.6666 8.66667V14C14.6666 15.1046 13.7712 16 12.6666 16H3.33331C2.22874 16 1.33331 15.1046 1.33331 14V8.66667ZM7.99998 10.6667C7.63179 10.6667 7.33331 10.9651 7.33331 11.3333C7.33331 11.7015 7.63179 12 7.99998 12C8.36817 12 8.66665 11.7015 8.66665 11.3333C8.66665 10.9651 8.36817 10.6667 7.99998 10.6667ZM5.99998 11.3333C5.99998 10.2288 6.89541 9.33333 7.99998 9.33333C9.10455 9.33333 9.99998 10.2288 9.99998 11.3333C9.99998 12.4379 9.10455 13.3333 7.99998 13.3333C6.89541 13.3333 5.99998 12.4379 5.99998 11.3333Z" fill="#202327"/>
</g>
<defs>
<clipPath id="clip0_4_503">
<rect width="16" height="16" fill="white"/>
</clipPath>
</defs>
</svg>

<svg xmlns="http://www.w3.org/2000/svg" viewBox="0 0 16 16" class="sageicon"><path fill-rule="evenodd" d="M8.073 0h-.07A3.967 3.967 0 0 0 4 3.927v1.406h1.333V3.937a2.634 2.634 0 0 1 2.66-2.604h.07a2.634 2.634 0 0 1 2.603 2.66v1.34H12v-1.33A3.967 3.967 0 0 0 8.073 0Zm-4.74 8a.667.667 0 0 0-.666.667V14c0 .368.298.667.666.667h9.334a.667.667 0 0 0 .666-.667V8.667A.667.667 0 0 0 12.666 8H3.333Zm-2 .667a2 2 0 0 1 2-2h9.334a2 2 0 0 1 2 2V14a2 2 0 0 1-2 2H3.332a2 2 0 0 1-2-2V8.667Zm6.667 2A.667.667 0 1 0 8 12a.667.667 0 0 0 0-1.333Zm-2 .666a2 2 0 1 1 4 0 2 2 0 0 1-4 0Z"/></svg>
